src/assets/icons/default/IconJira.svg

<svg width="20" height="20" viewBox="-1 2 26 26" xmlns="http://www.w3.org/2000/svg" focusable="false" aria-hidden="true">
    <defs>
      <linearGradient x1="98.0308675%" y1="0.160599572%" x2="58.8877062%" y2="40.7655246%" id="uid1">
        <stop stop-color="#0052CC" offset="18%"></stop>
        <stop stop-color="#2684FF" offset="100%"></stop>
      </linearGradient>
    </defs>
    <g stroke="none" stroke-width="1" fill-rule="nonzero">
      <path fill="#2684FF" d="M22.9366667,4 L11.41,4 C11.41,5.3800098 11.9582068,6.703498 12.934021,7.67931228 C13.9098353,8.65512657 15.2333235,9.20333333 16.6133333,9.20333333 L18.7366667,9.20333333 L18.7366667,11.2533333 C18.7385054,14.1244521 21.0655479,16.4514946 23.9366667,16.4533333 L23.9366667,5 C23.9366667,4.44771525 23.4889514,4 22.9366667,4 Z"></path>
      <path fill="url(#uid1)" d="M17.2333333,9.74333333 L5.70666667,9.74333333 C5.70850536,12.6144521 8.03554792,14.9414946 10.9066667,14.9433333 L13.03,14.9433333 L13.03,17 C13.0336786,19.8711178 15.3622132,22.196669 18.2333333,22.1966667 L18.2333333,10.7433333 C18.2333333,10.1910486 17.7856181,9.74333333 17.2333333,9.74333333 Z"></path>
      <path fill="url(#uid1)" d="M11.5266667,15.4833333 L0,15.4833333 C3.51929402e-16,18.357055 2.32961169,20.6866667 5.20333333,20.6866667 L7.33333333,20.6866667 L7.33333333,22.7366667 C7.33516565,25.6051863 9.65815176,27.9311544 12.5266667,27.9366667 L12.5266667,16.4833333 C12.5266667,15.9310486 12.0789514,15.4833333 11.5266667,15.4833333 Z"></path>
    </g>
  </svg>

<svg xmlns="http://www.w3.org/2000/svg" width="20" height="20" aria-hidden="true" viewBox="-1 2 26 26">
  <defs>
    <linearGradient id="a" x1="98.03%" x2="58.89%" y1=".16%" y2="40.77%">
      <stop offset="18%" stop-color="#0052cc"/>
      <stop offset="100%" stop-color="#2684ff"/>
    </linearGradient>
  </defs>
  <path fill="#2684ff" d="M22.94 4H11.4a5.2 5.2 0 0 0 5.2 5.2h2.13v2.05a5.2 5.2 0 0 0 5.2 5.2V5a1 1 0 0 0-1-1"/>
  <path fill="url(#a)" d="M17.23 9.74H5.71a5.2 5.2 0 0 0 5.2 5.2h2.12V17a5.2 5.2 0 0 0 5.2 5.2V10.74a1 1 0 0 0-1-1"/>
  <path fill="url(#a)" d="M11.53 15.48H0a5.2 5.2 0 0 0 5.2 5.2h2.13v2.06a5.2 5.2 0 0 0 5.2 5.2V16.48a1 1 0 0 0-1-1"/>
</svg>
